DSView/icons/data.svg

<?xml version="1.0" encoding="UTF-8" standalone="no"?>
<!-- 由 Microsoft Visio, SVG Export 生成 data.svg 页-1 -->

<svg
   xmlns:v="http://schemas.microsoft.com/visio/2003/SVGExtensions/"
   xmlns:dc="http://purl.org/dc/elements/1.1/"
   xmlns:cc="http://creativecommons.org/ns#"
   xmlns:rdf="http://www.w3.org/1999/02/22-rdf-syntax-ns#"
   xmlns:svg="http://www.w3.org/2000/svg"
   xmlns="http://www.w3.org/2000/svg"
   xmlns:sodipodi="http://sodipodi.sourceforge.net/DTD/sodipodi-0.dtd"
   xmlns:inkscape="http://www.inkscape.org/namespaces/inkscape"
   width="512"
   height="512"
   viewBox="0 0 384.00023 383.99965"
   xml:space="preserve"
   class="st2"
   version="1.1"
   id="svg24"
   sodipodi:docname="data.svg"
   style="font-size:12px;overflow:visible;color-interpolation-filters:sRGB;fill:none;fill-rule:evenodd;stroke-linecap:square;stroke-miterlimit:3"
   inkscape:version="0.92.4 (5da689c313, 2019-01-14)"><metadata
   id="metadata30"><rdf:RDF><cc:Work
       rdf:about=""><dc:format>image/svg+xml</dc:format><dc:type
         rdf:resource="http://purl.org/dc/dcmitype/StillImage" /><dc:title></dc:title></cc:Work></rdf:RDF></metadata><defs
   id="defs28" /><sodipodi:namedview
   pagecolor="#ffffff"
   bordercolor="#666666"
   borderopacity="1"
   objecttolerance="10"
   gridtolerance="10"
   guidetolerance="10"
   inkscape:pageopacity="0"
   inkscape:pageshadow="2"
   inkscape:window-width="3840"
   inkscape:window-height="2081"
   id="namedview26"
   showgrid="false"
   units="px"
   inkscape:zoom="0.66210977"
   inkscape:cx="255.99985"
   inkscape:cy="177.32016"
   inkscape:window-x="-9"
   inkscape:window-y="-9"
   inkscape:window-maximized="1"
   inkscape:current-layer="svg24" />
	<v:documentProperties
   v:langID="2052"
   v:viewMarkup="false" />

	<style
   type="text/css"
   id="style2">
	<![CDATA[
		.st1 {fill:#6d329c;stroke:none;stroke-linecap:butt;stroke-width:0.75}
		.st2 {fill:none;fill-rule:evenodd;font-size:12px;overflow:visible;stroke-linecap:square;stroke-miterlimit:3}
	]]>
	</style>

	<g
   v:mID="0"
   v:index="1"
   v:groupContext="foregroundPage"
   id="g22"
   transform="translate(0.755345,60.786275)">
		<title
   id="title4">页-1</title>
		<v:pageProperties
   v:drawingScale="0.0393701"
   v:pageScale="0.0393701"
   v:drawingUnits="24"
   v:shadowOffsetX="9"
   v:shadowOffsetY="-9" />
		<g
   id="group95-1"
   v:mID="95"
   v:groupContext="group">
			<title
   id="title6">工作表.95</title>
			<g
   id="group120-2"
   transform="translate(83.7165,-10.4066)"
   v:mID="120"
   v:groupContext="group">
				<title
   id="title8">工作表.120</title>
				<g
   id="shape121-3"
   v:mID="121"
   v:groupContext="shape"
   transform="translate(10.8,-12.2727)">
					<title
   id="title10">工作表.121</title>
					<path
   d="m 59.28,45.07 v 54.2 H 0 V 265.98 H 194.4 V 45.07 Z m 59.05,92.73 11.13,-8 33.29,38.68 -33.29,38.68 -11.13,-8 26.41,-30.68 z m -28.21,-8.18 h 14.16 v 77.72 H 90.12 Z m -25.18,0.18 11.13,8 -26.41,30.68 26.41,30.68 -11.13,8 -33.29,-38.68 z"
   class="st1"
   id="path12"
   inkscape:connector-curvature="0"
   style="fill:#6d329c;stroke:none;stroke-width:0.75;stroke-linecap:butt" />
				</g>
				<g
   id="shape122-5"
   v:mID="122"
   v:groupContext="shape"
   transform="translate(9.85654,-199.617)">
					<title
   id="title15">工作表.122</title>
					<path
   d="M 40.28,265.98 V 229.15 L 0,265.98 Z"
   class="st1"
   id="path17"
   inkscape:connector-curvature="0"
   style="fill:#6d329c;stroke:none;stroke-width:0.75;stroke-linecap:butt" />
				</g>
			</g>
		</g>
	</g>
</svg>

<?xml version="1.0" encoding="UTF-8" standalone="no"?>
<!DOCTYPE svg PUBLIC "-//W3C//DTD SVG 1.1//EN" "http://www.w3.org/Graphics/SVG/1.1/DTD/svg11.dtd">
<!-- 由 Microsoft Visio, SVG Export 生成 data.svg 页-1 -->
<svg xmlns="http://www.w3.org/2000/svg" xmlns:xlink="http://www.w3.org/1999/xlink" xmlns:ev="http://www.w3.org/2001/xml-events"
		xmlns:v="http://schemas.microsoft.com/visio/2003/SVGExtensions/" width="5.33333in" height="3.69417in"
		viewBox="0 0 384 265.98" xml:space="preserve" color-interpolation-filters="sRGB" class="st2">
	<v:documentProperties v:langID="2052" v:viewMarkup="false"/>

	<style type="text/css">
	<![CDATA[
		.st1 {fill:#6d329c;stroke:none;stroke-linecap:butt;stroke-width:0.75}
		.st2 {fill:none;fill-rule:evenodd;font-size:12px;overflow:visible;stroke-linecap:square;stroke-miterlimit:3}
	]]>
	</style>

	<g v:mID="0" v:index="1" v:groupContext="foregroundPage">
		<title>页-1</title>
		<v:pageProperties v:drawingScale="0.0393701" v:pageScale="0.0393701" v:drawingUnits="24" v:shadowOffsetX="9"
				v:shadowOffsetY="-9"/>
		<g id="group95-1" v:mID="95" v:groupContext="group">
			<title>工作表.95</title>
			<g id="group120-2" transform="translate(83.7165,-10.4066)" v:mID="120" v:groupContext="group">
				<title>工作表.120</title>
				<g id="shape121-3" v:mID="121" v:groupContext="shape" transform="translate(10.8,-12.2727)">
					<title>工作表.121</title>
					<path d="M59.28 45.07 L59.28 99.27 L0 99.27 L0 265.98 L194.4 265.98 L194.4 45.07 L59.28 45.07 ZM118.33 137.8
								 L129.46 129.8 L162.75 168.48 L129.46 207.16 L118.33 199.16 L144.74 168.48 L118.33 137.8 ZM90.12
								 129.62 L104.28 129.62 L104.28 207.34 L90.12 207.34 L90.12 129.62 ZM64.94 129.8 L76.07 137.8 L49.66
								 168.48 L76.07 199.16 L64.94 207.16 L31.65 168.48 L64.94 129.8 Z" class="st1"/>
				</g>
				<g id="shape122-5" v:mID="122" v:groupContext="shape" transform="translate(9.85654,-199.617)">
					<title>工作表.122</title>
					<path d="M40.28 265.98 L40.28 229.15 L0 265.98 L40.28 265.98 Z" class="st1"/>
				</g>
			</g>
		</g>
	</g>
</svg>
